symbols/web/fiber_new/materialsymbolssharp/fiber_new_gradN25fill1_24px.svg

<svg xmlns="http://www.w3.org/2000/svg" height="24" width="24"><path d="M3.65 14.925h1.175v-3.5l2.55 3.5h1.15v-5.85h-1.2v3.5l-2.5-3.5H3.65Zm5.9 0h3.9v-1.2h-2.475v-1.1h2.475v-1.2h-2.475v-1.15h2.475v-1.2h-3.9Zm4.95 0h5.85v-5.85h-1.2V13.5h-1.1v-3.45h-1.2v3.45H15.7V9.075h-1.2Zm-13.25 4.85V4.225h21.5v15.55Z"/></svg>

<svg xmlns="http://www.w3.org/2000/svg" height="24" width="24"><path d="M3.65 14.925H4.825V11.425L7.375 14.925H8.525V9.075H7.325V12.575L4.825 9.075H3.65ZM9.55 14.925H13.45V13.725H10.975V12.625H13.45V11.425H10.975V10.275H13.45V9.075H9.55ZM14.5 14.925H20.35V9.075H19.15V13.5H18.05V10.05H16.85V13.5H15.7V9.075H14.5ZM1.25 19.775V4.225H22.75V19.775Z"/></svg>
